src/img/icons/basket.svg

<?xml version="1.0" encoding="UTF-8" standalone="no"?> <svg width="24" height="24" viewBox="0 0 24 24" fill="none" xmlns="http://www.w3.org/2000/svg">
<path fill-rule="evenodd" clip-rule="evenodd" d="M10.7071 3.29289C11.0976 3.68342 11.0976 4.31658 10.7071 4.70711L7.41421 8H16.5858L13.2929 4.70711C12.9024 4.31658 12.9024 3.68342 13.2929 3.29289C13.6834 2.90237 14.3166 2.90237 14.7071 3.29289L19.4142 8H23C23.5523 8 24 8.44772 24 9C24 9.55228 23.5523 10 23 10H22.8346L21.2825 18.5367C21.0231 19.9631 19.7807 21 18.3308 21H5.66915C4.21929 21 2.9769 19.9631 2.71754 18.5367L1.16542 10H1C0.447715 10 0 9.55228 0 9C0 8.44772 0.447715 8 1 8H4.58579L9.29289 3.29289C9.68342 2.90237 10.3166 2.90237 10.7071 3.29289ZM3.19821 10L4.68528 18.1789C4.77174 18.6544 5.18587 19 5.66915 19H18.3308C18.8141 19 19.2283 18.6544 19.3147 18.1789L20.8018 10H3.19821ZM7.3356 12.0136C7.88037 11.9228 8.3956 12.2908 8.48639 12.8356L8.98639 15.8356C9.07719 16.3804 8.70917 16.8956 8.1644 16.9864C7.61963 17.0772 7.1044 16.7092 7.01361 16.1644L6.51361 13.1644C6.42281 12.6196 6.79083 12.1044 7.3356 12.0136ZM16.6644 12.0136C17.2092 12.1044 17.5772 12.6196 17.4864 13.1644L16.9864 16.1644C16.8956 16.7092 16.3804 17.0772 15.8356 16.9864C15.2908 16.8956 14.9228 16.3804 15.0136 15.8356L15.5136 12.8356C15.6044 12.2908 16.1196 11.9228 16.6644 12.0136ZM12 12C12.5523 12 13 12.4477 13 13V16C13 16.5523 12.5523 17 12 17C11.4477 17 11 16.5523 11 16V13C11 12.4477 11.4477 12 12 12Z" fill="#000"/>
</svg>

<svg width="24" height="24" viewBox="0 0 24 24" fill="none" xmlns="http://www.w3.org/2000/svg"><path fill-rule="evenodd" clip-rule="evenodd" d="M10.707 3.293a1 1 0 0 1 0 1.414L7.414 8h9.172l-3.293-3.293a1 1 0 0 1 1.414-1.414L19.414 8H23a1 1 0 1 1 0 2h-.165l-1.553 8.537A3 3 0 0 1 18.331 21H5.669a3 3 0 0 1-2.951-2.463L1.165 10H1a1 1 0 0 1 0-2h3.586l4.707-4.707a1 1 0 0 1 1.414 0zM3.198 10l1.487 8.179A1 1 0 0 0 5.67 19h12.662a1 1 0 0 0 .984-.821L20.802 10H3.198zm4.138 2.014a1 1 0 0 1 1.15.822l.5 3a1 1 0 1 1-1.972.328l-.5-3a1 1 0 0 1 .822-1.15zm9.328 0a1 1 0 0 1 .822 1.15l-.5 3a1 1 0 1 1-1.972-.328l.5-3a1 1 0 0 1 1.15-.822zM12 12a1 1 0 0 1 1 1v3a1 1 0 1 1-2 0v-3a1 1 0 0 1 1-1z" fill="#000"/></svg>
